X:1
T:Sospir che dal bel petto
T:Constantijn Huygens
T:Sospir che dal bel petto
C:Constantijn Huygens
%%score 1 2 { ( 3 5 ) | 4 }
L:1/8
Q:1/4=60
M:4/4
K:C
V:1 treble nm="Soprano" snm="S"
V:2 treble transpose=-12 nm="Viola da Gamba" snm="V.Gam."
V:3 treble nm="Harpsichord" snm="Hpschd."
V:5 treble 
V:4 bass 
V:1
 z2 z c c4- | c2 G2 A2 G(F | E)EEF GGAB | cG c4 dd | e2 A/ A/B/c/ d4 | B4 z4 :: z4 G4- | %7
w: So- spir|_ che dal bel pet-|* to Di Ma- don- na e- sci|fo- re, Dim- mi, che|fa quel co- * * *|re?|Ser-|
 G2 FG E2 A2 | A2 (^G2 A4) | A2 B2 c2 ^cd | e2 f2 ^c2 d2 | d2 (^c2 d2) A2 | d6 G2 | B2 c2 d2 e2 | %14
w: * ba l'an- ti- co af-|fet- to? _|O pur mes- sò sei|tu di no- vo a-|mo- re _ D'he|nò più|to- sto si- a|
 z2 G4 G2 | ^F4 G2 GA | B2 Bc d2 e2 | B2 c2 c2 B2 | c8 :| %19
w: So- spi-|ra- ta, so- spi|ra- ta da lei la|mor- te mi- *|a.|
V:2
 C8 | E4 F2 G2 | A2 GF E2 D2 | C2 c2 B4 | A2 F2 ^F4 | G4 z4 :: G8 | C8 | B,4 A,4 | z4 A,4 | A8 | %11
 A4 ^F4- | F2 ^F2 G4 | GF E2 D2 C2 | z4 B,2 C2 | A,4 G,4 | G4 G,4 | G,8 | C8 :| %19
V:3
 [E,G,C]2 z2 C2 D2 | [CEG]4 [CFA]2 [DG]2 | [A,CE]4 [B,EG]2 [B,DG]2 | [CEG]4 [B,DG]4 | %4
 [EAc]2 [CFA]2 [D^FA]4 | [B,DG]4 GFED :: [CEG]2 [B,DG]2 [CEG]2 [B,DG]2 | [CEG]4 [CEA]4 | %8
 [B,EB]4 [^CEA]4 | z4 [A,EA]4 | [EAc]2 [FAc]2 [EA^c]2 [FAd]2 | [^CEA]4 [D^FA]4 | [D^FA]4 [DGB]4 | %13
 [B,DG]2 [CEG]2 [DFA]2 [CEGc]2 | z4 [DG]4 | [A,D^F]4 [B,DG]4 | [DGB]4 [DB]2 [Ec]2 | G6 F2- | %18
 FE/F/ ED E4 :| %19
V:4
 C,8 | E,4 F,2 G,2 | A,2 G,F, E,2 D,2 | C,2 C2 B,4 | A,2 F,2 ^F,4 | G,4 z4 :: G,8 | C,8 | %8
 B,,4 A,,4 | z4 A,,4 | A,8 | A,4 ^F,4- | F,2 ^F,2 G,4 | G,F, E,2 D,2 C,2 | z4 B,,2 C,2 | %15
 A,,4 G,,4 | G,4 G,,4 | G,,8 | C,8 :| %19
V:5
 x8 | x8 | x8 | x8 | x8 | x8 :: x8 | x8 | x8 | x8 | x8 | x8 | x8 | x8 | x8 | x8 | x8 | %17
 [B,D]2 [CE]2 C2 [B,D]2 | [G,C]8 :| %19

